icons/laptopB.svg

<svg width="24" height="24" viewBox="0 0 24 24" fill="none" xmlns="http://www.w3.org/2000/svg">
<path d="M20.3001 17.0501H3.6001V6.85007C3.6001 5.25007 4.9001 3.95007 6.5001 3.95007H17.5001C19.1001 3.95007 20.4001 5.25007 20.4001 6.85007V17.0501H20.3001Z" fill="black"/>
<path fill-rule="evenodd" clip-rule="evenodd" d="M6.5001 4.70007C5.31431 4.70007 4.3501 5.66429 4.3501 6.85007V16.3001H19.6501V6.85007C19.6501 5.66429 18.6859 4.70007 17.5001 4.70007H6.5001ZM2.8501 6.85007C2.8501 4.83586 4.48588 3.20007 6.5001 3.20007H17.5001C19.5143 3.20007 21.1501 4.83586 21.1501 6.85007V17.8001H2.8501V6.85007Z" fill="black"/>
<path fill-rule="evenodd" clip-rule="evenodd" d="M3.5 17.8C3.11421 17.8 2.75 18.1643 2.75 18.55C2.75 18.9358 3.11421 19.3 3.5 19.3H20.5C20.8858 19.3 21.25 18.9358 21.25 18.55C21.25 18.1643 20.8858 17.8 20.5 17.8H3.5ZM1.25 18.55C1.25 17.3358 2.28579 16.3 3.5 16.3H20.5C21.7142 16.3 22.75 17.3358 22.75 18.55C22.75 19.7643 21.7142 20.8 20.5 20.8H3.5C2.28579 20.8 1.25 19.7643 1.25 18.55Z" fill="black"/>
</svg>

<svg xmlns="http://www.w3.org/2000/svg" fill="none" viewBox="0 0 24 24">
  <path fill="#000" d="M20.3 17.05H3.6V6.85c0-1.6 1.3-2.9 2.9-2.9h11c1.6 0 2.9 1.3 2.9 2.9v10.2h-.1Z"/>
  <path fill="#000" fill-rule="evenodd" d="M6.5 4.7c-1.186 0-2.15.964-2.15 2.15v9.45h15.3V6.85c0-1.186-.964-2.15-2.15-2.15h-11ZM2.85 6.85A3.652 3.652 0 0 1 6.5 3.2h11a3.652 3.652 0 0 1 3.65 3.65V17.8H2.85V6.85Z" clip-rule="evenodd"/>
  <path fill="#000" fill-rule="evenodd" d="M3.5 17.8c-.386 0-.75.364-.75.75s.364.75.75.75h17c.386 0 .75-.364.75-.75s-.364-.75-.75-.75h-17Zm-2.25.75c0-1.214 1.036-2.25 2.25-2.25h17c1.214 0 2.25 1.036 2.25 2.25s-1.036 2.25-2.25 2.25h-17c-1.214 0-2.25-1.036-2.25-2.25Z" clip-rule="evenodd"/>
</svg>
